img/sm/activision.svg

<?xml version="1.0" encoding="UTF-8"?>
<svg width="1199px" height="308px" viewBox="0 0 1199 308" version="1.1" xmlns="http://www.w3.org/2000/svg" xmlns:xlink="http://www.w3.org/1999/xlink">
    <!-- Generator: Sketch 63.1 (92452) - https://sketch.com -->
    <title>编组</title>
    <desc>Created with Sketch.</desc>
    <defs>
        <polygon id="path-1" points="0.526173462 0.6848 135.261 0.6848 135.261 193.6848 0.526173462 193.6848"></polygon>
    </defs>
    <g id="页面-1" stroke="none" stroke-width="1" fill="none" fill-rule="evenodd">
        <g id="编组">
            <path d="M91.2457,184.4176 C94.9007,184.4176 98.5577,184.3606 102.2107,184.4386 C104.4387,184.4846 105.6127,184.2516 104.7187,181.4186 C100.5437,168.1886 96.5727,154.8946 92.5067,141.6296 C92.2967,140.9416 91.8837,140.3156 91.5647,139.6616 C91.2217,140.2126 90.7407,140.7226 90.5577,141.3216 C86.4567,154.7536 82.3937,168.1966 78.3077,181.6336 C77.6017,183.9566 78.6537,184.5086 80.7797,184.4436 C84.2657,184.3376 87.7567,184.4146 91.2457,184.4176 L91.2457,184.4176 Z M93.1817,0.0006 C97.9477,14.0786 102.5997,28.1966 107.4967,42.2306 C133.0767,115.5316 158.6867,188.8226 184.4237,262.0696 C185.8327,266.0806 185.7937,267.3086 180.9947,267.2056 C167.0217,266.9036 153.0367,266.9856 139.0587,267.1826 C135.8227,267.2286 134.3777,266.1246 133.3417,263.1906 C130.1987,254.2966 126.6817,245.5326 123.5467,236.6366 C122.6167,233.9956 121.3197,233.1226 118.5237,233.1446 C101.2167,233.2716 83.9077,233.2796 66.5997,233.1376 C63.7427,233.1136 62.5197,234.1226 61.6017,236.6876 C58.3657,245.7276 54.7947,254.6476 51.5977,263.7016 C50.6577,266.3636 49.3497,267.1936 46.5587,267.1646 C32.4137,267.0196 18.2647,266.9626 4.1217,267.1836 C-0.0123,267.2476 -0.7623,266.4636 0.6627,262.4156 C20.7737,205.2826 40.7217,148.0936 60.7277,90.9246 C71.1677,61.0926 81.6487,31.2746 92.0917,1.4436 C92.2457,1.0056 92.1577,0.4826 92.1827,0.0006 L93.1817,0.0006 Z" id="Fill-1" fill="#DCDCDC"></path>
            <g transform="translate(1063.000000, 79.435000)">
                <mask id="mask-2" fill="white">
                    <use xlink:href="#path-1"></use>
                </mask>
                <g id="Clip-4"></g>
                <path d="M135.2612,193.6848 C133.9852,192.6818 132.6022,191.7878 131.4472,190.6608 C105.5072,165.3288 79.5912,139.9698 53.6712,114.6178 C52.8392,113.8038 52.0932,112.8428 51.1192,112.2638 C50.7702,112.0568 49.4122,112.6638 49.3052,113.0948 C49.0322,114.1918 49.2012,115.3988 49.2012,116.5618 C49.2002,138.3248 49.1262,160.0868 49.2722,181.8488 C49.2972,185.5188 48.6702,187.1258 44.4462,187.0178 C31.2982,186.6768 18.1392,186.6888 4.9862,186.8008 C1.5302,186.8308 0.5202,185.8108 0.526173462,182.3168 C0.6302,123.0098 0.5962,63.7028 0.6292,4.3958 C0.6292,3.1588 1.0562,1.9218 1.2832,0.6848 C2.3622,1.3598 3.5472,1.9098 4.5012,2.7288 C30.2532,24.8178 55.9822,46.9348 81.7122,69.0478 C82.7222,69.9148 83.6812,70.8488 84.7462,71.6398 C85.3562,72.0918 86.1342,72.3198 86.8352,72.6478 C87.0142,71.8948 87.3442,71.1428 87.3482,70.3898 C87.3852,61.5848 87.3732,52.7808 87.3742,43.9758 C87.3742,32.5128 87.5192,21.0468 87.2892,9.5888 C87.2182,5.9988 88.3932,5.1898 91.7992,5.2298 C106.2842,5.4038 120.7742,5.2968 135.2612,5.2918 L135.2612,193.6848 Z" id="Fill-3" fill="#DCDCDC" mask="url(#mask-2)"></path>
            </g>
            <path d="M373.6407,20.6129 C412.4337,20.6129 451.2277,20.7069 490.0197,20.4909 C494.6967,20.4649 496.4977,21.9729 498.1117,26.2419 C514.8717,70.5519 531.8957,114.7639 548.8817,158.9899 C549.3867,160.3039 550.2787,161.4699 550.9907,162.7059 C551.6327,161.4559 552.3987,160.2529 552.8997,158.9489 C569.8947,114.7379 586.9227,70.5409 603.7417,26.2629 C605.3167,22.1139 607.0837,20.4719 611.8247,20.4838347 C687.0797,20.6679 762.3347,20.6519 837.5907,20.5119 C841.8447,20.5039 844.0617,21.8109 846.0117,25.5519 C852.6797,38.3499 859.7507,50.9379 866.6617,63.6099 C869.4257,68.6759 869.4187,68.6899 863.7477,68.6899 C791.6557,68.6929 719.5637,68.7389 647.4727,68.5809 C642.9077,68.5709 640.9887,69.8459 639.3547,74.2049 C610.6897,150.6689 581.8017,227.0489 552.9647,303.4479 C552.7307,304.0669 552.6297,304.7539 552.3077,305.3179 C551.8797,306.0699 551.2947,306.7339 550.7767,307.4349 C550.3847,306.7469 549.8957,306.0939 549.6157,305.3639 C545.7627,295.3129 541.9107,285.2619 538.1147,275.1909 C512.7677,207.9379 487.3997,140.6939 462.1987,73.3869 C460.8827,69.8729 459.4337,68.5639 455.5987,68.5979 C433.6227,68.7919 411.6437,68.8039 389.6687,68.5919 C385.6117,68.5509 384.7927,69.8129 384.7987,73.5989 C384.9107,136.2179 384.8787,198.8369 384.8777,261.4559 C384.8777,267.9659 384.8747,267.9689 378.5977,267.9699 C365.7777,267.9729 352.9537,267.7929 340.1397,268.0709 C335.8817,268.1639 334.9597,266.7639 334.9677,262.7469 C335.0867,200.1279 335.0617,137.5089 335.0367,74.8899 C335.0337,67.8699 335.9337,68.7139 329.0557,68.7069 C296.2567,68.6739 263.4567,68.6959 230.6577,68.6879 C225.4577,68.6859 225.4347,68.6489 227.8497,64.0899 C234.7587,51.0479 241.8117,38.0799 248.5227,24.9379 C250.1937,21.6669 252.0887,20.5159 255.7637,20.5289 C295.0557,20.6649 334.3487,20.6129 373.6407,20.6129" id="Fill-5" fill="#DCDCDC"></path>
            <path d="M961.3257,221.7467 C986.2397,222.3057 1007.7857,201.9817 1008.4347,177.3097 C1009.1377,150.6737 988.6627,129.1697 962.2667,128.8217 C937.6587,128.4967 915.9757,149.0217 915.4597,173.1297 C914.8797,200.1817 934.6607,221.1487 961.3257,221.7467 M962.1027,81.4682992 C1013.9747,81.6187 1056.0807,123.6407 1056.11472,175.2917 C1056.1487,227.1647 1013.8147,269.2797 961.7367,269.181871 C909.6827,269.0827 867.4737,226.7667 867.719621,174.9247 C867.9657,123.2877 910.3497,81.3187 962.1027,81.4682992" id="Fill-7" fill="#DCDCDC"></path>
            <path d="M265.5167,81.3873 C286.7397,81.6713 305.5837,88.4653 322.5437,100.9883 C325.8017,103.3933 326.2627,104.9273 323.2597,108.1513 C314.6517,117.3913 306.3957,126.9623 298.1647,136.5433 C296.2217,138.8063 295.0737,139.3253 292.2647,137.4303 C275.3337,126.0053 257.7557,125.4113 240.2677,135.9303 C223.9737,145.7303 215.3987,164.9553 219.2657,183.9713 C223.1787,203.2193 235.1207,215.7283 254.2977,220.7233 C268.1657,224.3343 281.0277,221.3483 292.5807,213.1303 C295.2167,211.2553 296.4447,211.2583 298.5557,213.7373 C306.9627,223.6033 315.5237,233.3423 324.2327,242.9453 C326.4387,245.3763 326.5107,246.6893 323.8497,248.7223 C302.9367,264.7023 279.4707,272.0683 253.2947,268.1643 C213.0207,262.1583 186.3837,239.2003 174.8537,200.4433 C158.8317,146.5803 195.8677,90.4803 251.6357,82.6723 C256.2327,82.0293 260.8887,81.8063 265.5167,81.3873" id="Fill-9" fill="#DCDCDC"></path>
            <path d="M735.4488,266.3522 C726.4628,266.3522 717.4728,266.2062 708.4928,266.4242 C704.9638,266.5112 703.5118,265.8182 703.6268,261.8462 C703.9288,251.3962 703.8648,240.9282 703.6528,230.4742 C703.5828,227.0222 704.5548,225.9562 708.0828,225.9762 C719.3878,226.0392 730.7358,226.2582 741.9938,225.4252 C754.5838,224.4942 758.8008,215.6302 751.3758,205.3322 C744.5018,195.7982 736.4028,187.1452 728.8878,178.0672 C719.3038,166.4892 710.7558,154.3332 707.2478,139.3562 C705.0028,129.7652 705.2908,120.2422 708.1938,110.8812 C713.1488,94.9032 727.5188,84.2612 745.0238,83.9322 C760.8278,83.6342 776.6418,83.9282 792.4498,83.7916903 C795.5458,83.7652 796.4548,84.8072 796.4158,87.8062 C796.2738,98.4292 796.2618,109.0572 796.4238,119.6792 C796.4698,122.6932 795.6358,123.7332 792.5078,123.6562 C784.3588,123.4532 776.2008,123.5652 768.0478,123.6042 C766.0568,123.6142 764.0398,123.6512 762.0858,123.9742 C752.8028,125.5082 749.6348,131.3722 754.3918,139.6572 C757.6638,145.3542 762.0898,150.4252 766.2648,155.5622 C773.4898,164.4502 781.3138,172.8772 788.1668,182.0362 C797.1588,194.0542 803.1578,207.5132 803.5038,222.8192 C804.0038,244.9322 791.2418,261.1792 769.2518,264.9052 C758.1978,266.7782 746.7478,266.3132 735.4758,266.9052 C735.4678,266.7202 735.4588,266.5362 735.4488,266.3522" id="Fill-11" fill="#DCDCDC"></path>
            <path d="M641.9449,174.9352 C641.9449,146.1962 642.0239,117.4562 641.852578,88.7182 C641.8299,84.7112 643.0339,83.6832 646.9209,83.7512 C659.9049,83.9782 672.8969,83.9542 685.8829,83.7602 C689.4259,83.7072 690.3769,84.8572 690.37192,88.2862 C690.2839,146.2622 690.2849,204.2392 690.3699,262.2142 C690.3749,265.5302 689.2869,266.4412 686.0669,266.4042 C672.9139,266.2492 659.7559,266.2032 646.6039,266.4262 C642.8279,266.4902 641.8439,265.3592 641.8639,261.6502 C642.0109,232.7462 641.9449,203.8402 641.9449,174.9352" id="Fill-13" fill="#DCDCDC"></path>
            <path d="M811.2847,175.4577 C811.2837,146.7337 811.3727,118.0097 811.1877,89.2877 C811.1597,84.9947 812.1567,83.6037 816.6707,83.7217 C829.3097,84.0527 841.9667,83.9487 854.6117,83.7647 C858.1167,83.7148606 859.5377,84.3497 859.528742,88.3237 C859.3957,146.2697 859.4137,204.2147 859.4997,262.1587 C859.5047,265.3787 858.6397,266.4527 855.3167,266.4087 C842.1717,266.2377 829.0187,266.1907 815.8757,266.4317 C812.0247,266.5027 811.1907,265.2417 811.2087,261.6277 C811.3457,232.9037 811.2847,204.1807 811.2847,175.4577" id="Fill-15" fill="#DCDCDC"></path>
            <path d="M459.8565,176.0338 C459.8565,204.7448 459.7935,233.4568 459.9345,262.1678 C459.9525,265.8898 459.2415,267.3068 455.1085,267.2128 C442.3055,266.9188 429.4875,266.9188 416.6845,267.2128 C412.5555,267.3068 411.8515,265.8898 411.8585,262.1738 C411.9655,204.5848 411.9655,146.9958 411.856446,89.4068 C411.8495,85.8388 412.5235,84.5578 416.4295,84.6388 C429.3995,84.9088 442.3825,84.9068 455.3535,84.6398 C459.2465,84.5598 459.9555,85.8198 459.93783,89.4018 C459.7935,118.2778 459.8565,147.1558 459.8565,176.0338" id="Fill-17" fill="#DCDCDC"></path>
        </g>
    </g>
</svg>

<svg width="1199" height="308" xmlns="http://www.w3.org/2000/svg" xmlns:xlink="http://www.w3.org/1999/xlink"><defs><path id="a" d="M.526.685h134.735v193H.526z"/></defs><g fill="none" fill-rule="evenodd"><path d="M91.246 184.418c3.655 0 7.312-.057 10.965.02 2.228.047 3.402-.186 2.508-3.02-4.175-13.23-8.146-26.523-12.212-39.788-.21-.688-.623-1.314-.942-1.968-.343.55-.824 1.06-1.007 1.66-4.101 13.432-8.164 26.875-12.25 40.312-.706 2.323.346 2.875 2.472 2.81 3.486-.106 6.977-.03 10.466-.026zM93.182 0c4.766 14.078 9.418 28.196 14.315 42.23 25.58 73.3 51.19 146.592 76.927 219.839 1.409 4.01 1.37 5.239-3.43 5.136-13.972-.302-27.957-.22-41.935-.023-3.236.046-4.681-1.058-5.717-3.992-3.143-8.894-6.66-17.658-9.795-26.554-.93-2.641-2.227-3.514-5.023-3.492-17.307.127-34.616.135-51.924-.007-2.857-.024-4.08.985-4.998 3.55-3.236 9.04-6.807 17.96-10.004 27.014-.94 2.662-2.248 3.492-5.04 3.463-14.144-.145-28.293-.202-42.436.019-4.134.064-4.884-.72-3.46-4.768 20.112-57.133 40.06-114.322 60.066-171.491 10.44-29.832 20.92-59.65 31.364-89.481.154-.438.066-.961.09-1.443h1z" fill="#DCDCDC"/><g transform="translate(1063 79.435)"><mask id="b" fill="#fff"><use xlink:href="#a"/></mask><path d="M135.261 193.685c-1.276-1.003-2.659-1.897-3.814-3.024-25.94-25.332-51.856-50.691-77.776-76.043-.832-.814-1.578-1.775-2.552-2.354-.349-.207-1.707.4-1.814.83-.273 1.098-.104 2.305-.104 3.468 0 21.763-.075 43.525.071 65.287.025 3.67-.602 5.277-4.826 5.169-13.148-.341-26.307-.33-39.46-.217-3.456.03-4.466-.99-4.46-4.484C.63 123.01.596 63.703.63 4.396c0-1.237.427-2.474.654-3.711 1.08.675 2.264 1.225 3.218 2.044 25.752 22.089 51.481 44.206 77.211 66.319 1.01.867 1.97 1.8 3.034 2.592.61.452 1.388.68 2.09 1.008.178-.753.508-1.505.512-2.258.037-8.805.025-17.61.026-26.414 0-11.463.145-22.93-.085-34.387-.07-3.59 1.104-4.4 4.51-4.36 14.485.175 28.975.068 43.462.063v188.393z" fill="#DCDCDC" mask="url(#b)"/></g><path d="M373.64 20.613c38.794 0 77.588.094 116.38-.122 4.677-.026 6.478 1.482 8.092 5.75 16.76 44.31 33.784 88.523 50.77 132.749.505 1.314 1.397 2.48 2.109 3.716.642-1.25 1.408-2.453 1.909-3.757 16.995-44.211 34.023-88.408 50.842-132.686 1.575-4.15 3.342-5.791 8.083-5.78 75.255.185 150.51.169 225.766.029 4.254-.008 6.47 1.299 8.42 5.04 6.669 12.798 13.74 25.386 20.65 38.058 2.765 5.066 2.758 5.08-2.913 5.08-72.092.003-144.184.049-216.275-.11-4.565-.01-6.484 1.266-8.118 5.625-28.665 76.464-57.553 152.844-86.39 229.243-.234.619-.335 1.306-.657 1.87-.428.752-1.013 1.416-1.531 2.117-.392-.688-.881-1.341-1.161-2.071-3.853-10.051-7.705-20.102-11.501-30.173-25.347-67.253-50.715-134.497-75.916-201.804-1.316-3.514-2.765-4.823-6.6-4.79-21.976.195-43.955.207-65.93-.005-4.057-.041-4.876 1.22-4.87 5.007.112 62.619.08 125.238.079 187.857 0 6.51-.003 6.513-6.28 6.514-12.82.003-25.644-.177-38.458.1-4.258.094-5.18-1.306-5.172-5.323.119-62.62.094-125.238.069-187.857-.003-7.02.897-6.176-5.981-6.183-32.8-.033-65.6-.011-98.398-.02-5.2-.001-5.223-.038-2.808-4.597 6.909-13.042 13.962-26.01 20.673-39.152 1.67-3.271 3.566-4.422 7.24-4.41 39.293.137 78.586.085 117.878.085M961.326 221.747c24.914.559 46.46-19.765 47.109-44.437.703-26.636-19.772-48.14-46.168-48.488-24.608-.325-46.291 20.2-46.807 44.308-.58 27.052 19.2 48.019 45.866 48.617m.777-140.279c51.872.15 93.978 42.173 94.012 93.824.034 51.873-42.3 93.988-94.378 93.89-52.054-.1-94.263-42.415-94.017-94.257.246-51.637 42.63-93.606 94.383-93.457" fill="#DCDCDC"/><path d="M265.517 81.387c21.223.284 40.067 7.078 57.027 19.601 3.258 2.405 3.719 3.94.716 7.163-8.608 9.24-16.864 18.811-25.095 28.392-1.943 2.263-3.091 2.782-5.9.887-16.931-11.425-34.51-12.019-51.997-1.5-16.294 9.8-24.87 29.025-21.002 48.041 3.913 19.248 15.855 31.757 35.032 36.752 13.868 3.611 26.73.625 38.283-7.593 2.636-1.875 3.864-1.872 5.975.607a1258.969 1258.969 0 0025.677 29.208c2.206 2.431 2.278 3.744-.383 5.777-20.913 15.98-44.38 23.346-70.555 19.442-40.274-6.006-66.911-28.964-78.441-67.72-16.022-53.864 21.014-109.964 76.782-117.772 4.597-.643 9.253-.866 13.88-1.285M735.449 266.352c-8.986 0-17.976-.146-26.956.072-3.53.087-4.981-.606-4.866-4.578.302-10.45.238-20.918.026-31.372-.07-3.452.902-4.518 4.43-4.498 11.305.063 22.653.282 33.91-.55 12.59-.932 16.808-9.796 9.383-20.094-6.874-9.534-14.973-18.187-22.488-27.265-9.584-11.578-18.132-23.734-21.64-38.71-2.245-9.592-1.957-19.115.946-28.476 4.955-15.978 19.325-26.62 36.83-26.949 15.804-.298 31.618-.004 47.426-.14 3.096-.027 4.005 1.015 3.966 4.014-.142 10.623-.154 21.251.008 31.873.046 3.014-.788 4.054-3.916 3.977-8.15-.203-16.307-.09-24.46-.052-1.991.01-4.008.047-5.962.37-9.283 1.534-12.451 7.398-7.694 15.683 3.272 5.697 7.698 10.768 11.873 15.905 7.225 8.888 15.049 17.315 21.902 26.474 8.992 12.018 14.99 25.477 15.337 40.783.5 22.113-12.262 38.36-34.252 42.086-11.054 1.873-22.504 1.408-33.776 2a49.932 49.932 0 00-.027-.553M641.945 174.935c0-28.739.079-57.479-.092-86.217-.023-4.007 1.18-5.035 5.068-4.967 12.984.227 25.976.203 38.962.01 3.543-.054 4.494 1.096 4.489 4.525-.088 57.976-.087 115.953-.002 173.928.005 3.316-1.083 4.227-4.303 4.19-13.153-.155-26.311-.2-39.463.022-3.776.064-4.76-1.067-4.74-4.776.147-28.904.08-57.81.08-86.715M811.285 175.458c-.001-28.724.088-57.448-.097-86.17-.028-4.293.969-5.684 5.483-5.566 12.639.33 25.296.227 37.94.043 3.506-.05 4.927.585 4.918 4.559-.133 57.946-.115 115.89-.03 173.835.006 3.22-.86 4.294-4.182 4.25-13.145-.171-26.298-.218-39.441.023-3.851.07-4.685-1.19-4.667-4.804.137-28.724.076-57.447.076-86.17M459.856 176.034c0 28.71-.063 57.423.079 86.134.017 3.722-.694 5.139-4.827 5.045a837.074 837.074 0 00-38.423 0c-4.13.094-4.834-1.323-4.827-5.04.108-57.588.108-115.177-.002-172.766-.007-3.568.668-4.85 4.574-4.768 12.97.27 25.952.268 38.923 0 3.894-.08 4.602 1.18 4.585 4.763-.144 28.876-.082 57.754-.082 86.632" fill="#DCDCDC"/></g></svg>
